vsi/circuit-board_light.svg

<svg viewBox="0 0 16 16" fill="none" xmlns="http://www.w3.org/2000/svg" height="1em" width="1em">
  <path d="M14.5002 1H1.50024L1.00024 1.5V14.5L1.50024 15H14.5002L15.0002 14.5V1.5L14.5002 1ZM14.0002 14H5.00024V12H7.30024C7.60024 12.6 8.30024 13 9.00024 13C10.1002 13 11.0002 12.1 11.0002 11C11.0002 9.9 10.1002 9 9.00024 9C7.90024 9 7.00024 9.9 7.00024 11H4.00024V14H2.00024V2H4.00024V4.3C3.40024 4.6 3.00024 5.3 3.00024 6C3.00024 7.1 3.90024 8 5.00024 8C6.10024 8 7.00024 7.1 7.00024 6H9.00024C9.00024 7.1 9.90024 8 11.0002 8C12.1002 8 13.0002 7.1 13.0002 6C13.0002 4.9 12.1002 4 11.0002 4C10.3002 4 9.60024 4.4 9.30024 5H6.70024C6.40024 4.4 5.70024 4 5.00024 4V2H14.0002V14ZM8.00024 11C8.00024 10.4 8.40024 10 9.00024 10C9.60024 10 10.0002 10.4 10.0002 11C10.0002 11.6 9.60024 12 9.00024 12C8.40024 12 8.00024 11.6 8.00024 11ZM5.00024 5C5.60024 5 6.00024 5.4 6.00024 6C6.00024 6.6 5.60024 7 5.00024 7C4.40024 7 4.00024 6.6 4.00024 6C4.00024 5.4 4.40024 5 5.00024 5ZM11.0002 5C11.6002 5 12.0002 5.4 12.0002 6C12.0002 6.6 11.6002 7 11.0002 7C10.4002 7 10.0002 6.6 10.0002 6C10.0002 5.4 10.4002 5 11.0002 5Z" fill="#424242"/>
</svg>

<svg viewBox="0 0 16 16" fill="none" xmlns="http://www.w3.org/2000/svg" height="1em" width="1em">
  <path d="M14.5 1h-13l-.5.5v13l.5.5h13l.5-.5v-13l-.5-.5ZM14 14H5v-2h2.3c.3.6 1 1 1.7 1 1.1 0 2-.9 2-2s-.9-2-2-2-2 .9-2 2H4v3H2V2h2v2.3c-.6.3-1 1-1 1.7 0 1.1.9 2 2 2s2-.9 2-2h2c0 1.1.9 2 2 2s2-.9 2-2-.9-2-2-2c-.7 0-1.4.4-1.7 1H6.7c-.3-.6-1-1-1.7-1V2h9v12Zm-6-3c0-.6.4-1 1-1s1 .4 1 1-.4 1-1 1-1-.4-1-1ZM5 5c.6 0 1 .4 1 1s-.4 1-1 1-1-.4-1-1 .4-1 1-1Zm6 0c.6 0 1 .4 1 1s-.4 1-1 1-1-.4-1-1 .4-1 1-1Z" fill="#424242"/>
</svg>
